X: 31612
T: Pandy Clock, The
R: jig
M: 6/8
K: Amajor
|:eAA ABA|FAA EAA|FAA EAA|GBB Bcd|
eAA ABA|FAA EAA|EAA BAB|cAA A3:|
|:ecc acc|ece aec|dBB GBB|EBB Bcd|
ecc acc|ece aec|EAA BAB|cAA A3:|

